X: 237
%
U:~=!turn!
T: The Hon. Lady Fraser of Lovat
C:Robert Petrie
O:Scotland
B:Keith Norman MacDonald : "The Skye collection of the best reels & strathspeys extant" : 1887
Z:Ralph Palmer
R:Strathspey
M:C
L:1/8
K:A minor
G | E<A, TE>D EA,TA,>C | B,>G E/D/C/B,/ {/B,}DB,G, {/^F}G | (TE<A,) TE>D EA,A,(B,/C/) | DE/F/ (E/D/).C/.B,/ CA,A, :|
Tc/>B/ | .A.a.c.a Aa {/f}ed/c/ | GgBg Gg (e/d/).c/.B/ | Aaca Aa (f/e/).d/.c/ | B/(c/d/).B/ e/>c/d/>B/ cA ATc/>B/ |
Aaca Aa (f/e/).d/.c/ | GgBg Gg (e/d/).c/.B/ | .A/.B/.c/.A/ .B/.c/.d/.B/ .c/.d/.e/.c/ .d/.e/.f/.d/ | e>E (e/d/).c/.B/ cAA |]


